X: 181
T: the Singling's of Pool's Troop
B: C. & S. Thompson, "The Compleat Tutor for the Fife" c.1760 p.18 #1
S: http://imslp.org/wiki/The_Compleat_Tutor_for_the_Fife_(Anonymous)
Z: 2014 John Chambers <jc:trillian.mit.edu>
N: The title uses apostrophes oddly.
M: 3/4
L: 1/8
K: G
% - - - - - - - - - - - - - - - - - - - - - - - - -
|:\
G2 BGBe | d2 c2 TB2 | g2 fedc | B2 AB G2 |\
G2 BG d2 | G2 BG g2 | f>e f2 Te2 | d6 :|
|:\
e2 egfg | d2 dgfg | c2 edcB | A2 GFED |\
e2 egfg | d2 dgfg | cA B2 TA2 | G6 :|
% - - - - - - - - - - - - - - - - - - - - - - - - -
